static/images/apple-logo.svg

<svg height="119" viewBox="0 0 100 119" width="100" xmlns="http://www.w3.org/2000/svg"><path d="m83.2740214 113.76038c-6.4294188 6.23962-13.5231317 5.266904-20.2846976 2.325029-7.1886121-3.001186-13.7603796-3.190984-21.3523131 0-9.4543298 4.080665-14.4721234 2.894425-20.1660736-2.325029-32.1470937-33.0960858-27.4021352-83.5112697 9.1340451-85.4092531 8.86121.4744959 15.0652432 4.8991697 20.2846975 5.2669039 7.7580071-1.5776987 15.1838672-6.0972716 23.4875445-5.5041518 9.9762752.8066429 17.4377224 4.7449585 22.4199288 11.826809-20.5219454 12.3368921-15.658363 39.3831554 3.1909846 46.975089-3.772242 9.9051008-8.6120996 19.691578-16.7259786 26.927639zm-33.0960855-85.765125c-.960854-14.7093713 10.9608541-26.80901538 24.6737841-27.995255 1.886121 16.9632266-15.421115 29.6559905-24.6737841 27.995255z"/></svg>

<?xml version="1.0" encoding="UTF-8"?>
<svg width="100px" height="119px" viewBox="0 0 100 119" version="1.1" xmlns="http://www.w3.org/2000/svg" xmlns:xlink="http://www.w3.org/1999/xlink">
    <!-- Generator: Sketch 63.1 (92452) - https://sketch.com -->
    <title>apple-logo</title>
    <desc>Created with Sketch.</desc>
    <g id="Page-1" stroke="none" stroke-width="1" fill="none" fill-rule="evenodd">
        <g id="apple-logo" fill="#000000" fill-rule="nonzero">
            <path d="M83.2740214,113.76038 C76.8446026,120 69.7508897,119.027284 62.9893238,116.085409 C55.8007117,113.084223 49.2289442,112.894425 41.6370107,116.085409 C32.1826809,120.166074 27.1648873,118.979834 21.4709371,113.76038 C-10.6761566,80.6642942 -5.9311981,30.2491103 30.6049822,28.3511269 C39.4661922,28.8256228 45.6702254,33.2502966 50.8896797,33.6180308 C58.6476868,32.0403321 66.0735469,27.5207592 74.3772242,28.113879 C84.3534994,28.9205219 91.8149466,32.8588375 96.797153,39.940688 C76.2752076,52.2775801 81.13879,79.3238434 99.9881376,86.915777 C96.2158956,96.8208778 91.376038,106.607355 83.262159,113.843416 L83.2740214,113.76038 Z M50.1779359,27.995255 C49.2170819,13.2858837 61.13879,1.18623962 74.85172,0 C76.737841,16.9632266 59.430605,29.6559905 50.1779359,27.995255 Z" id="Shape"></path>
        </g>
    </g>
</svg>
